assets/images/Timerkids/Kid.svg

<svg width="48" height="49" viewBox="0 0 48 49" fill="none" xmlns="http://www.w3.org/2000/svg">
<circle cx="24" cy="24.8467" r="24" fill="#F7C24D"/>
<path fill-rule="evenodd" clip-rule="evenodd" d="M31.2285 17.8106C32.695 18.9719 33.8482 20.4684 34.5869 22.1685C35.765 22.1904 36.8872 22.6645 37.7125 23.4887C38.5377 24.313 39 25.4217 39 26.5764C39 27.7312 38.5377 28.8398 37.7125 29.6641C36.8872 30.4884 35.765 30.9624 34.5869 30.9844C33.7036 33.0198 32.229 34.7557 30.3465 35.9759C28.4641 37.1961 26.257 37.8467 24 37.8467C21.743 37.8467 19.5359 37.1961 17.6535 35.9759C15.771 34.7557 14.2964 33.0198 13.4131 30.9844C12.235 30.9624 11.1128 30.4884 10.2875 29.6641C9.4623 28.8398 9 27.7312 9 26.5764C9 25.4217 9.4623 24.313 10.2875 23.4887C11.1128 22.6645 12.235 22.1904 13.4131 22.1685C14.2926 20.1413 15.7589 18.4112 17.6307 17.1917C19.5025 15.9722 21.6978 15.3169 23.9454 15.3066L26.152 11.8467L27.848 12.8855L26.1758 15.5076C28.0269 15.8584 29.7619 16.6492 31.2285 17.8106ZM34.5489 29.0247C35.2031 29.0138 35.8265 28.7505 36.2839 28.2921C36.626 27.9508 36.8586 27.5187 36.953 27.0492C37.0473 26.5797 36.9992 26.0935 36.8146 25.6505C36.6301 25.2076 36.3171 24.8273 35.9144 24.5567C35.5117 24.2862 35.037 24.1372 34.5489 24.1281L33.2536 24.104L32.7465 22.9357C32.0169 21.254 30.7986 19.8197 29.2434 18.8115C27.6882 17.8034 25.8647 17.2658 24 17.2658C22.1354 17.2658 20.3119 17.8034 18.7566 18.8115C17.2014 19.8197 15.9832 21.254 15.2536 22.9357L14.7464 24.104L13.4511 24.1281C12.7967 24.1401 12.1731 24.4034 11.7146 24.8612C11.2561 25.319 10.9993 25.9349 10.9993 26.5764C10.9993 27.2179 11.2561 27.8338 11.7146 28.2916C12.1731 28.7495 12.7967 29.0127 13.4511 29.0247L14.7464 29.0488L15.2536 30.2171C15.9831 31.8989 17.2014 33.3332 18.7566 34.3414C20.3119 35.3496 22.1353 35.8871 24 35.8871C25.8647 35.8871 27.6882 35.3496 29.2434 34.3414C30.7987 33.3332 32.0169 31.8989 32.7465 30.2171L33.2536 29.0488L34.5489 29.0247ZM21 24.1262H18.5V26.5762H21V24.1262ZM27 24.1262H29.5V26.5762H27V24.1262ZM25.9134 33.0638C25.3068 33.3101 24.6566 33.4368 24 33.4368C22.6739 33.4368 21.4021 32.9206 20.4645 32.0016C20.0002 31.5466 19.6319 31.0064 19.3806 30.4119C19.1293 29.8174 19 29.1802 19 28.5367H29C29 29.1802 28.8707 29.8174 28.6194 30.4119C28.3681 31.0064 27.9998 31.5466 27.5355 32.0016C27.0712 32.4566 26.52 32.8176 25.9134 33.0638Z" fill="#010107"/>
</svg>

<svg xmlns="http://www.w3.org/2000/svg" width="48" height="49" fill="none" viewBox="0 0 48 49"><circle cx="24" cy="24.847" r="24" fill="#F7C24D"/><path fill="#010107" fill-rule="evenodd" d="M31.229 17.81a11.314 11.314 0 0 1 3.358 4.359c1.178.021 2.3.495 3.125 1.32A4.364 4.364 0 0 1 39 26.576a4.364 4.364 0 0 1-1.288 3.088 4.543 4.543 0 0 1-3.125 1.32 11.332 11.332 0 0 1-4.24 4.992A11.673 11.673 0 0 1 24 37.846a11.67 11.67 0 0 1-6.346-1.87 11.332 11.332 0 0 1-4.24-4.992 4.543 4.543 0 0 1-3.127-1.32A4.364 4.364 0 0 1 9 26.576c0-1.154.462-2.263 1.287-3.087a4.543 4.543 0 0 1 3.126-1.32 11.329 11.329 0 0 1 4.218-4.977 11.67 11.67 0 0 1 6.314-1.885l2.207-3.46 1.696 1.039-1.672 2.622a11.625 11.625 0 0 1 5.053 2.303zm3.32 11.215a2.51 2.51 0 0 0 1.735-.733 2.407 2.407 0 0 0 .531-2.641 2.459 2.459 0 0 0-.9-1.094 2.535 2.535 0 0 0-1.366-.429l-1.295-.024-.508-1.168a9.362 9.362 0 0 0-3.503-4.125A9.644 9.644 0 0 0 24 17.267a9.644 9.644 0 0 0-5.243 1.546 9.362 9.362 0 0 0-3.503 4.124l-.508 1.168-1.295.024a2.524 2.524 0 0 0-1.736.733 2.423 2.423 0 0 0-.716 1.715c0 .642.257 1.258.716 1.716a2.523 2.523 0 0 0 1.736.733l1.295.024.508 1.168a9.36 9.36 0 0 0 3.503 4.124A9.643 9.643 0 0 0 24 35.887a9.643 9.643 0 0 0 5.243-1.546 9.361 9.361 0 0 0 3.503-4.124l.508-1.168 1.295-.024zM21 24.126h-2.5v2.45H21v-2.45zm6 0h2.5v2.45H27v-2.45zm-1.087 8.938a5.088 5.088 0 0 1-1.913.373 5.052 5.052 0 0 1-3.535-1.435 4.895 4.895 0 0 1-1.084-1.59A4.815 4.815 0 0 1 19 28.537h10c0 .643-.13 1.28-.38 1.875a4.895 4.895 0 0 1-1.085 1.59 5.008 5.008 0 0 1-1.622 1.062z" clip-rule="evenodd"/></svg>
